X: 857
T: Ale Is Dear, The
R: reel
M: 4/4
K: Bdorian
f2 ef B2 fe|faef ceAe|f2 ef B2 fe|faec B4:|
BABc d2 cB|A2 AB ABcA|BABc d2 cB|efec B4|
BABc d2 cB|A2 AB ABcA|d2 fd c2 ec|efec B4|

